X: 14020
T: Frank's
R: reel
M: 4/4
K: Dmajor
|:dfed B2 dB|ABde edef|g3 b bafa|b2af ~e3 f|
dfed ~B3 d|ABde edef|g ~b3 afdf|1 edce d2 z2:|2 edce d2 (3ddd||
d zz c zz Bz|ABBA FDEF|G3 B ADFD|EFGA BABc|
d zz c zz Bz|ABBA FDEF|G ~B3 AFDF|edce d2 (3ddd|
d zz c zz Bz|ABBA FDEF|G3 B BAFA|Bdaf ~e3 f|
dfed ~B3 d|ABde edef|g ~b3 afdf|edce d4||

